local/share/icons/dracula-icons-main/scalable/apps/gnome-tetravex.svg

<?xml version="1.0" encoding="UTF-8"?>
<svg xmlns="http://www.w3.org/2000/svg" xmlns:xlink="http://www.w3.org/1999/xlink" width="64" height="64" viewBox="0 0 64 64">
<path fill-rule="nonzero" fill="rgb(89.411765%, 10.980392%, 10.980392%)" fill-opacity="1" d="M 3.417969 3.417969 C 2.078125 4.757812 1.324219 6.574219 1.324219 8.464844 C 1.324219 10.359375 2.078125 12.175781 3.417969 13.515625 L 8.46875 8.46875 Z M 3.417969 3.417969 "/>
<path fill-rule="nonzero" fill="rgb(51.764706%, 87.058824%, 17.254902%)" fill-opacity="1" d="M 13.515625 3.417969 L 8.46875 8.46875 L 13.515625 13.515625 C 14.855469 12.175781 15.609375 10.359375 15.609375 8.464844 C 15.609375 6.574219 14.855469 4.757812 13.515625 3.417969 Z M 13.515625 3.417969 "/>
<path fill-rule="nonzero" fill="rgb(54.901961%, 38.823529%, 55.686275%)" fill-opacity="1" d="M 8.46875 8.46875 L 3.417969 13.515625 C 4.757812 14.855469 6.574219 15.609375 8.464844 15.609375 C 10.359375 15.609375 12.175781 14.855469 13.515625 13.515625 Z M 8.46875 8.46875 "/>
<path fill-rule="nonzero" fill="rgb(43.529412%, 61.176471%, 80.392157%)" fill-opacity="1" d="M 8.464844 1.324219 C 6.574219 1.324219 4.757812 2.078125 3.417969 3.417969 L 8.46875 8.46875 L 13.515625 3.417969 C 12.175781 2.078125 10.359375 1.324219 8.464844 1.324219 Z M 8.464844 1.324219 "/>
<path fill-rule="nonzero" fill="rgb(100%, 100%, 100%)" fill-opacity="1" d="M 8.539062 6.03125 C 8.199219 6.03125 8 5.726562 7.960938 5.171875 C 8.136719 4.921875 8.339844 4.824219 8.507812 4.824219 C 8.835938 4.824219 8.992188 5.054688 8.992188 5.417969 C 8.992188 5.785156 8.796875 6.03125 8.539062 6.03125 Z M 9.261719 3.78125 C 9.101562 3.601562 8.871094 3.5 8.632812 3.503906 C 8.113281 3.503906 7.640625 3.910156 7.640625 4.960938 C 7.640625 5.851562 8.019531 6.292969 8.539062 6.292969 C 8.957031 6.292969 9.308594 5.941406 9.308594 5.421875 C 9.308594 4.859375 9.019531 4.578125 8.5625 4.578125 C 8.351562 4.578125 8.117188 4.699219 7.949219 4.902344 C 7.964844 4.066406 8.277344 3.785156 8.644531 3.785156 C 8.808594 3.785156 8.972656 3.859375 9.078125 3.988281 Z M 9.261719 3.78125 "/>
<path fill-rule="nonzero" fill="rgb(100%, 100%, 100%)" fill-opacity="1" d="M 3.472656 9.8125 L 5.164062 9.8125 L 5.164062 9.523438 L 4.421875 9.523438 C 4.285156 9.523438 4.117188 9.539062 3.980469 9.550781 C 4.609375 8.949219 5.03125 8.402344 5.03125 7.867188 C 5.03125 7.386719 4.730469 7.070312 4.25 7.070312 C 3.910156 7.070312 3.679688 7.230469 3.460938 7.46875 L 3.652344 7.660156 C 3.800781 7.484375 3.992188 7.347656 4.210938 7.347656 C 4.546875 7.347656 4.707031 7.570312 4.707031 7.878906 C 4.707031 8.34375 4.316406 8.878906 3.472656 9.613281 Z M 3.472656 9.8125 "/>
<path fill-rule="nonzero" fill="rgb(100%, 100%, 100%)" fill-opacity="1" d="M 12.550781 9.859375 C 13.007812 9.859375 13.433594 9.527344 13.433594 8.9375 C 13.433594 8.347656 13.070312 8.082031 12.621094 8.082031 C 12.480469 8.078125 12.34375 8.117188 12.222656 8.1875 L 12.289062 7.410156 L 13.304688 7.410156 L 13.304688 7.125 L 11.992188 7.125 L 11.910156 8.382812 L 12.089844 8.492188 C 12.242188 8.390625 12.359375 8.335938 12.535156 8.335938 C 12.875 8.335938 13.09375 8.5625 13.09375 8.945312 C 13.09375 9.339844 12.839844 9.582031 12.523438 9.582031 C 12.210938 9.582031 12.015625 9.4375 11.863281 9.285156 L 11.695312 9.503906 C 11.878906 9.683594 12.132812 9.859375 12.550781 9.859375 Z M 12.550781 9.859375 "/>
<path fill-rule="nonzero" fill="rgb(100%, 100%, 100%)" fill-opacity="1" d="M 8.160156 13.355469 L 8.511719 13.355469 C 8.550781 12.304688 8.667969 11.679688 9.296875 10.871094 L 9.296875 10.667969 L 7.613281 10.667969 L 7.613281 10.953125 L 8.917969 10.953125 C 8.390625 11.6875 8.203125 12.335938 8.160156 13.355469 Z M 8.160156 13.355469 "/>
</svg>

<svg width="64" height="64" version="1.1" viewBox="0 0 16.933 16.933" xmlns="http://www.w3.org/2000/svg" xmlns:xlink="http://www.w3.org/1999/xlink">
 <g stroke-width="3.636">
  <path transform="scale(.26458)" d="m12.92 12.92a27 27 0 0 0-7.9199 19.08 27 27 0 0 0 7.9219 19.082l19.08-19.08-19.082-19.082z" fill="#e41c1c" style="paint-order:markers stroke fill"/>
  <path transform="scale(.26458)" d="m51.082 12.922-19.08 19.08 19.078 19.078a27 27 0 0 0 7.9199-19.08 27 27 0 0 0-7.918-19.078z" fill="#84de2c" style="paint-order:markers stroke fill"/>
  <path transform="scale(.26458)" d="m32.002 32.002-19.08 19.08a27 27 0 0 0 19.078 7.918 27 27 0 0 0 19.08-7.9199l-19.078-19.078z" fill="#8c638e" style="paint-order:markers stroke fill"/>
  <path transform="scale(.26458)" d="m32 5a27 27 0 0 0-19.08 7.9199l19.082 19.082 19.08-19.08a27 27 0 0 0-19.082-7.9219z" fill="#6f9ccd" style="paint-order:markers stroke fill"/>
 </g>
 <g fill="#fff" font-size="3.528" font-weight="400" letter-spacing="0" stroke-width=".254" word-spacing="0">
  <path d="m8.539 6.032c-0.338 0-0.54-0.304-0.58-0.862 0.176-0.25 0.382-0.345 0.55-0.345 0.327 0 0.485 0.231 0.485 0.594 0 0.367-0.198 0.613-0.455 0.613zm0.721-2.252a0.826 0.826 0 0 0-0.627-0.275c-0.52 0-0.994 0.404-0.994 1.457 0 0.888 0.381 1.332 0.899 1.332 0.418 0 0.77-0.353 0.77-0.874 0-0.561-0.29-0.843-0.745-0.843-0.212 0-0.447 0.124-0.612 0.326 0.014-0.836 0.326-1.119 0.693-1.119 0.165 0 0.327 0.077 0.433 0.205z" aria-label="6"/>
  <path d="m3.473 9.813h1.692v-0.29h-0.745c-0.136 0-0.301 0.015-0.44 0.026 0.63-0.598 1.053-1.145 1.053-1.68 0-0.481-0.301-0.797-0.782-0.797-0.341 0-0.572 0.158-0.792 0.397l0.194 0.19c0.147-0.176 0.338-0.311 0.558-0.311 0.334 0 0.495 0.223 0.495 0.532 0 0.462-0.389 0.998-1.233 1.735z" aria-label="2"/>
  <path d="m12.552 9.86c0.455 0 0.88-0.333 0.88-0.924 0-0.59-0.363-0.855-0.81-0.855a0.772 0.772 0 0 0-0.4 0.107l0.066-0.778h1.016v-0.286h-1.31l-0.084 1.258 0.18 0.11c0.154-0.102 0.268-0.157 0.447-0.157 0.338 0 0.558 0.227 0.558 0.612 0 0.393-0.257 0.635-0.572 0.635-0.312 0-0.507-0.143-0.66-0.297l-0.166 0.22c0.18 0.18 0.437 0.356 0.855 0.356z" aria-label="5"/>
  <path d="m8.16 13.357h0.35c0.04-1.053 0.157-1.676 0.788-2.487v-0.202h-1.684v0.286h1.303c-0.525 0.734-0.712 1.383-0.756 2.403z" aria-label="7"/>
 </g>
</svg>
